Adwaita++-Light/panel/22/irccloud-desktop-tray.svg

<svg height="22" width="22" xmlns="http://www.w3.org/2000/svg">
  <path d="m10.5 3a5.5 5.5 0 0 0 -5.4804688 5.1269531 4 4 0 0 0 -3.0195312 3.8730469 4 4 0 0 0 4 4h-.2207031c.0790699.28213.1487537.567335.1289062.845703.01039.746578-.3997707 1.199563-.9023437 1.634766-.127824.06781-.2260149.147344-.2167969.175781.03038.09368.6159005.29352.9609375.328125.445165.04463 1.0652649-.009607 1.4199219-.142578.563869-.211406 1.0170285-.563451 1.3359375-1.041016.272695-.408366.4161593-.813186.4589844-1.285156l.03125-.515625h6.5039062a3.5 3.5 0 0 0 3.5-3.5 3.5 3.5 0 0 0 -3.027344-3.4628906 5.5 5.5 0 0 0 .027344-.5371094 5.5 5.5 0 0 0 -5.5-5.5z" fill="#444"/>
</svg>

<svg xmlns="http://www.w3.org/2000/svg" width="22" height="22" version="1.1">
 <defs>
  <style id="current-color-scheme" type="text/css">
   .ColorScheme-Text { color:#444444; } .ColorScheme-Highlight { color:#4285f4; }
  </style>
 </defs>
 <path style="fill:currentColor" class="ColorScheme-Text" d="M 10.5 3 A 5.5 5.5 0 0 0 5.0195312 8.1269531 A 4 4 0 0 0 2 12 A 4 4 0 0 0 6 16 L 5.7792969 16 C 5.8583668 16.28213 5.9280506 16.567335 5.9082031 16.845703 C 5.9185931 17.592281 5.5084324 18.045266 5.0058594 18.480469 C 4.8780354 18.548279 4.7798445 18.627813 4.7890625 18.65625 C 4.8194425 18.74993 5.404963 18.94977 5.75 18.984375 C 6.195165 19.029005 6.8152649 18.974768 7.1699219 18.841797 C 7.7337909 18.630391 8.1869504 18.278346 8.5058594 17.800781 C 8.7785544 17.392415 8.9220187 16.987595 8.9648438 16.515625 L 8.9960938 16 L 15.5 16 A 3.5 3.5 0 0 0 19 12.5 A 3.5 3.5 0 0 0 15.972656 9.0371094 A 5.5 5.5 0 0 0 16 8.5 A 5.5 5.5 0 0 0 10.5 3 z"/>
</svg>
